X:7
T:Boys of Bluehill
Z: id:dc-hornpipe-7
M:C|
L:1/8
K:D Major
dB|BAFA DAFA|BA (3Bcd e2de|fagf egfe|dfed B2dB|!
BAFA DAFA|BA (3Bcd e2de|fagf egfe|d2dc d2:|!
fg|afdf a2gf|gfga b2ag|fagf egfe|dfed B2dB|!
BAFA DAFA|BA (3Bcd e2de|fagf egfe|d2dc d2:|!

